brandFactory_export/1.Light/Anular_1Light.svg

<?xml version="1.0" encoding="UTF-8"?>
<svg width="24px" height="24px" viewBox="0 0 24 24" version="1.1" xmlns="http://www.w3.org/2000/svg" xmlns:xlink="http://www.w3.org/1999/xlink">
    <title>1.Light/Anular_1Light</title>
    <g id="Symbols" stroke="none" stroke-width="1" fill="none" fill-rule="evenodd">
        <g id="1.Light/Anular_1Light" fill="#5CB615" fill-rule="nonzero">
            <path d="M11.8084034,22.6386555 C8.45714286,22.6386555 5.88235294,21.8352941 4.08403361,20.2554622 L20.2554622,4.08403361 C21.8352941,5.88571429 22.6386555,8.45714286 22.6386555,11.8151261 C22.6386555,18.9983193 18.994958,22.6386555 11.8084034,22.6386555 M11.8084034,0.98487395 C15.1798319,0.98487395 17.7613445,1.79495798 19.5596639,3.38823529 L3.38823529,19.5596639 C1.79495798,17.7613445 0.98487395,15.1798319 0.98487395,11.8117647 C0.98487395,4.62857143 4.62521008,0.98487395 11.8084034,0.98487395 M11.8084034,-1.77635684e-15 C4.34621849,-1.77635684e-15 0,3.76806723 0,11.8151261 C0,19.8621849 4.34621849,23.6235294 11.8084034,23.6235294 C19.2705882,23.6235294 23.6235294,19.8621849 23.6235294,11.8151261 C23.6235294,3.76806723 19.2705882,-1.77635684e-15 11.8084034,-1.77635684e-15" id="Anular_1Light"></path>
        </g>
    </g>
</svg>

<svg width="24" height="24" viewBox="0 0 24 24" xmlns="http://www.w3.org/2000/svg"><path d="M11.808 22.639c-3.35 0-5.926-.804-7.724-2.384L20.255 4.084c1.58 1.802 2.384 4.373 2.384 7.731 0 7.183-3.644 10.824-10.83 10.824m0-21.654c3.37 0 5.952.81 7.75 2.403L3.39 19.56C1.794 17.76.984 15.18.984 11.812.985 4.629 4.625.985 11.808.985m0-.985C4.346 0 0 3.768 0 11.815s4.346 11.809 11.808 11.809c7.463 0 11.816-3.762 11.816-11.809C23.624 3.768 19.27 0 11.808 0" fill="#5CB615" fill-rule="nonzero"/></svg>
